build/img/icons/32.svg

<svg width="32" height="32" viewBox="0 0 32 32" fill="none" xmlns="http://www.w3.org/2000/svg">
<path d="M6.32619 0V31.6235H4.76724V9.18588L4.24759 11.3694L3.23088 15.7365L3.18569 15.8871L3.11791 15.7365L2.1012 11.3694L1.58155 9.11058V31.6235H0V0H1.58155L3.18569 6.77647L4.76724 0H6.32619Z" fill="#0AD9C6"/>
<path d="M3.93117 15.887L3.88599 15.7364L3.93117 15.887Z" fill="#0AD9C6"/>
<path d="M3.99918 15.7364L3.95399 15.887H3.9314L3.99918 15.7364Z" fill="#0AD9C6"/>
<path d="M18.0879 8.85745L13.7673 19.4297L14.7677 23.97L19.0883 13.3977L18.0879 8.85745Z" fill="#0AD9C6"/>
<path d="M12.6242 4.73273C10.795 4.73273 9.29004 9.67103 9.29004 15.8439C9.29004 21.9396 10.7719 26.9551 12.6242 26.9551C14.4533 26.9551 15.9583 22.0168 15.9583 15.8439C15.9583 9.74819 14.4533 4.73273 12.6242 4.73273ZM12.6242 20.9365C11.7675 20.9365 11.096 18.6217 11.096 15.8439C11.096 12.989 11.7906 10.7513 12.6242 10.7513C13.4577 10.7513 14.1523 13.0661 14.1523 15.8439C14.1523 18.6217 13.4577 20.9365 12.6242 20.9365Z" fill="#0AD9C6"/>
<path d="M20.6586 4.73273C18.8295 4.73273 17.3245 9.67103 17.3245 15.8439C17.3245 21.9396 18.8063 26.9551 20.6586 26.9551C22.4878 26.9551 23.9927 22.0168 23.9927 15.8439C23.9696 9.74819 22.4878 4.73273 20.6586 4.73273ZM20.6586 20.9365C19.8019 20.9365 19.1305 18.6217 19.1305 15.8439C19.1305 12.989 19.8251 10.7513 20.6586 10.7513C21.4921 10.7513 22.1868 13.0661 22.1868 15.8439C22.1868 18.6217 21.4921 20.9365 20.6586 20.9365Z" fill="#0AD9C6"/>
<path d="M32 0.376465V32H30.4184V15.5859L29.0854 11.3694L28.0913 8.13176V32H26.5098V0.376465H28.0687H28.0913L29.944 6.3247L30.4184 7.83058V0.376465H32Z" fill="#0AD9C6"/>
<rect x="17.5154" y="4.73273" width="2.84033" height="6.31036" fill="#0AD9C6"/>
</svg>

<svg width="32" height="32" fill="none" xmlns="http://www.w3.org/2000/svg"><path d="M6.326 0v31.623H4.767V9.186l-.52 2.183-1.016 4.367-.045.151-.068-.15L2.1 11.368 1.58 9.11v22.513H0V0h1.582l1.604 6.776L4.767 0h1.56zM3.931 15.887l-.045-.15.045.15z" fill="#0AD9C6"/><path d="M4 15.736l-.046.151h-.023l.068-.15zm14.088-6.879l-4.32 10.573 1 4.54 4.32-10.572-1-4.54z" fill="#0AD9C6"/><path d="M12.624 4.733c-1.829 0-3.334 4.938-3.334 11.11 0 6.097 1.482 11.112 3.334 11.112 1.83 0 3.334-4.938 3.334-11.111 0-6.096-1.505-11.111-3.334-11.111zm0 16.203c-.857 0-1.528-2.314-1.528-5.092 0-2.855.695-5.093 1.528-5.093.834 0 1.528 2.315 1.528 5.093s-.694 5.092-1.528 5.092zm8.035-16.203c-1.83 0-3.334 4.938-3.334 11.11 0 6.097 1.481 11.112 3.334 11.112 1.829 0 3.334-4.938 3.334-11.111-.023-6.096-1.505-11.111-3.334-11.111zm0 16.203c-.857 0-1.528-2.314-1.528-5.092 0-2.855.694-5.093 1.528-5.093.833 0 1.528 2.315 1.528 5.093s-.695 5.092-1.528 5.092zM32 .376V32h-1.582V15.586l-1.333-4.217-.994-3.237V32H26.51V.376h1.581l1.853 5.949.474 1.506V.376H32z" fill="#0AD9C6"/><path fill="#0AD9C6" d="M17.515 4.733h2.84v6.31h-2.84z"/></svg>
